udata_front/theme/gouvfr/templates/svg/edit.svg

<svg fill="none" height="15" viewBox="0 0 15 15" width="15" xmlns="http://www.w3.org/2000/svg"><path d="m13.9258 2.77344-1.4766-1.47656c-.7109-.710942-1.8867-.710942-2.59764 0l-8.69531 8.64062-.65625 4.0742c-.082031.4375.300781.8203.73828.7383l4.07422-.6562 8.6406-8.69536c.711-.71094.711-1.88672-.0273-2.625zm-10.14455 6.23437 4.64844-4.62109 2.43361 2.43359-4.62111 4.64849v-1.1485h-1.3125v-1.31249zm-1.03906 4.29299-.79297-.793.35547-1.9961.49219-.51951h1.14843v1.31251h1.3125v1.1484l-.51953.4922zm10.36331-8.75002-1.3399 1.33984-2.40622-2.40624 1.33982-1.33985c.2461-.24609.6563-.24609.9024 0l1.4765 1.47656c.2735.27344.2735.6836.0274.92969z" fill="#3a3a3a"/></svg>

<svg aria-hidden="true" width="15" height="15" viewBox="0 0 15 15" fill="none" xmlns="http://www.w3.org/2000/svg">
<path d="M13.9258 2.77344L12.4492 1.29688C11.7383 0.585938 10.5625 0.585938 9.85156 1.29688L1.15625 9.9375L0.5 14.0117C0.417969 14.4492 0.800781 14.832 1.23828 14.75L5.3125 14.0938L13.9531 5.39844C14.6641 4.6875 14.6641 3.51172 13.9258 2.77344ZM3.78125 9.00781L8.42969 4.38672L10.8633 6.82031L6.24219 11.4688V10.3203H4.92969V9.00781H3.78125ZM2.74219 13.3008L1.94922 12.5078L2.30469 10.5117L2.79688 9.99219H3.94531V11.3047H5.25781V12.4531L4.73828 12.9453L2.74219 13.3008ZM13.1055 4.55078L11.7656 5.89062L9.35938 3.48438L10.6992 2.14453C10.9453 1.89844 11.3555 1.89844 11.6016 2.14453L13.0781 3.62109C13.3516 3.89453 13.3516 4.30469 13.1055 4.55078Z" fill="#3A3A3A"/>
</svg>
